X:1
T:Dixit Dominus Domino meo
T:Leon Leoni
T:Dixit Dominus Domino meo
T:Psalm 109 (110)
C:Leon Leoni
%%score [ 1 2 3 ] 4
L:1/8
Q:1/4=120
M:4/4
K:C
V:1 alto1 nm="Cantus" snm="C"
V:2 alto nm="Altus" snm="A"
V:3 bass nm="Bassus" snm="B"
V:4 bass nm="Partitura" snm="Ptra"
V:1
 x8 | z2 z2 z2 x2 |[K:D][K:treble] G2 (A2 B2) B2 | B2 B2 =c2 B2 | B2 A2 !fermata!B4 | z8 | %6
w: ||Di- xit _ Do-|mi- nus Do- mi-|no me- o:||
 B4 B2 B2 | A4 ^G4 | A6 G2 | F8 | E4 e4 | d2 B2 d4- | d4 c4 | B8- | B4 A2 G2 | F8 | !fermata!^G8 | %17
w: se- de a|dex- tris|me- *||is, se-|de a dex-|* tris|me-|||is,|
 G6 A2 | B4 B4 | A3 A A2 G2 | FEDEFGAF | GABc d3 c/B/ | A2 G2 A4 | B8 | B8 | AGAFGA B2- | %26
w: do- nec|po- nam|i- ni- mi- cos|tu- * * * * * * *|||os|scabellum pe-|dum _ _ _ _ _ _|
 B2 ^A2 Bcdc | B3 A/G/FG A2- | A2 G2 F4 | !fermata!E8 | z8 | z8 | z8 | z8 | z8 | z8 | z8 | z8 | %38
w: _ tu- o- * * *|||rum.|||||||||
 z8 | z8 | z8 | z8 | z8 | z8 | z8 | z8 | z8 | z8 | z8 | z8 | z8 | z8 | z8 | z8 | z8 | z8 | z8 | %57
w: |||||||||||||||||||
 z8 | B8 | d8 | c8 | d2 c2 B2 A2 | G2 A2 B4- | B4 ^A4 | B8 | B8 | A4 =c4 | B6 AG | F4 G4 | F6 F2 | %70
w: |Juravit Dominus et non poeni-|te-|bit|e- * * *|||um:|tu es sacerdos in aeternum secundum ordi-|nem Mel-|chi- * *||* se-|
 !fermata!E8 | B8 | AGAFGFGE | F2 D2 EFGA | BABc d3 c/B/ | AF B4 ^A2 | B8 | G8 | A2 F2 GABc | %79
w: dech.|Dominus a|dex- * * * * * * *|* tris tu- * * *|||is:|confregit in die irae|su- ae re- * * *|
 dcdBcBcA | B2 AG F4 | !fermata!^G8 | z8 | z8 | z8 | z8 | z8 | z8 | z8 | z8 | z8 | z8 | z8 | z8 | %94
w: ||ges.|||||||||||||
 z8 | z8 | z8 | z8 | z8 | z8 | z8 | z8 | z8 | z8 | z8 | B8 | cBAB c2 A2 | BAGFGABc | %108
w: |||||||||||Gloria Pa-|tri _ _ _ _ et|Fi- * * * * * * *|
 d3 c/B/ A2 A2 | B8 | F4 F2 G2 | A3 G/F/ E2 F2 | GFEFGABc | dEFG A3 G | F2 E2 F4 | !fermata!^G8 | %116
w: * * * * li-|o|et Spi- ri-|tu- * * * i|San- * * * * * * *|||cto,|
 G8- | G4 G4 | G3 G G2 F2 | G3 G G2 D2 | FEFG A4 | z2 G2 F4 | E2 G2 BABc | d2 d2 BABG | AF B4 ^A2 | %125
w: Si-|* cut|e- rat in prin-|ci- pi- o et|nunc _ _ _ _|et sem-|per, et nunc _ _ _|_ et sem- * * *||
 B8 | B2 c2 d3 d | d2 A4 B2 | G2 A2 F4 | ^G4 z2 B2- | B2 F2 A4- | A2 G2 F4 | E2 B4 B2 | G4 G4 | %134
w: per,|et in sae- cu-|la sae- cu-|lo- rum, A-|men, sae-|* cu- lo-|* rum, A-|men, sae- cu-|lo- rum,|
 =c8 | !fermata!B8 |] %136
w: A-|men.|
V:2
 x8 | z2 z2 z2 x2 |[K:D][K:treble] G,2 (A,2 B,2) B,2 | B,2 B,2 =C2 B,2 | B,2 A,2 B,4 | E4 E2 E2 | %6
w: ||Di- xit _ Do-|mi- nus Do- mi-|no me- o:|se- de a|
 D2 C2 D2 E2 | F4 B,4 | C2 D2 E4- | E4 ^D4 | E8 | z4 B4 | A2 F2 A4- | A4 G4 | F4 E4- | E4 ^D4 | %16
w: dex- * * *|* tris|me- * *||is,|se-|de a dex-|* tris|me- *||
 E8 | z8 | z8 | z8 | z8 | z8 | z8 | z8 | z8 | z8 | z8 | z8 | z8 | z8 | E8 | DCB,CDEFG | A2 E2 F4- | %33
w: is,||||||||||||||Virgam virtutis tuae emittet Domi-|nus _ _ _ _ _ _ _|_ ex Si-|
 F2 ED C4 | ^D8 | G8 | FEFD E2 C2 | DEFG A3 G/F/ | EFGE F3 E/D/ | CE E4 ^D2 | !fermata!E8 | z8 | %42
w: |on:|dominare in medio inimico-|rum _ _ _ _ tu-|o- * * * * * *|||rum.||
 z8 | z8 | z8 | z8 | z8 | z8 | z8 | z8 | z8 | z8 | z8 | z8 | z8 | z8 | z8 | z8 | G8 | F4 G4 | %60
w: ||||||||||||||||Juravit Dominus et non poeni-|te- bit|
 E4 F4- | F2 E2 D2 ^^C2 | B,4 E4- | E2 D2 C4 | B,8 | D8 | F4 E4 | G6 FE | D2 B,2 E4- | E4 ^D4 | %70
w: e- *||||um:|tu es sacerdos in aeternum secundum ordi-|nem Mel-|chi- * *||* se-|
 E8 | z8 | z8 | z8 | z8 | z8 | z8 | z8 | z8 | z8 | z8 | z8 | E8 | DCB,CDEFG | A2 E2 F4- | %85
w: dech.||||||||||||Judicabit in nationibus, imple-|bit _ _ _ _ _ _ _|_ ru- i-|
 F2 ED C4 | ^D8 | G8 | FEFD E2 C2 | DEFG A3 G/F/ | EFGE F3 E/D/ | CD E4 ^D2 | !fermata!E8 | z8 | %94
w: |nas:|conquassabit capita in ter-|ra _ _ _ _ mul-|to- * * * * * *|||rum.||
 z8 | z8 | z8 | z8 | z8 | z8 | z8 | z8 | z8 | z8 | z8 | G8 | A4 E4 | GFEDEFGE | F2 G4 F2 | G8 | %110
w: |||||||||||Gloria Pa-|tri et|Fi- * * * * * * *|* * li-|o|
 D4 A,2 B,2 | C4 C4 | B,A,G,F,E,F,G,A, | B,CDB,CDEC | ^D2 E4 D2 | E8 | B,8- | B,4 B,4 | %118
w: et Spi- ri-|tu- i|San- * * * * * * *|||cto,|Si-|* cut|
 =C3 C C2 A,2 | B,3 B, B,4 | z2 D2 CB,CD | E2 E2 ^D4 | E2 E2 GFGE | F4 E4 | D4 C4 | B,8 | %126
w: e- rat in prin-|ci- pi- o|et nunc _ _ _|_ et sem-|per, et nunc _ _ _|_ et|sem- *|per,|
 D2 E2 F3 F | F2 F4 G2 | E2 E2 ^D4 | E2 E2 B,2 D2- | D2 A,B,CDEC | ^D2 E4 D2 | E8 | z2 E4 E2 | %134
w: et in sae- cu-|la sae- cu-|lo- rum, A-|men, sae- cu- lo-|* rum, _ _ _ _ _|_ _ A-|men,|sae- cu-|
 =C2 A,2 A4 | ^G8 |] %136
w: lo- rum, A-|men.|
V:3
 x8 | z2 z2 z2 x2 |[K:D] G,2 (A,2 B,2) B,2 | B,2 B,2 =C2 B,2 | B,2 A,2 B,4 | E,8 | B,,6 C,2 | %7
w: ||Di- xit _ Do-|mi- nus Do- mi-|no me- o:|se-|de a|
 D,4 E,4 | A,,8 | B,,8 | E,8 | B,4 G,4 | A,8 | E,8 | B,8- | B,8 | E,8 | z8 | z8 | z8 | z8 | z8 | %22
w: dex- tris|me-|is,|se-|de a|dex-|tris|me-||is,||||||
 z8 | z8 | z8 | z8 | z8 | z8 | z8 | z8 | z8 | z8 | z8 | z8 | z8 | z8 | z8 | z8 | z8 | z8 | z8 | %41
w: |||||||||||||||||||
 E,8 | D,3 C, B,,2 =C,2 | G,,A,,B,,C,D,E,F,G, | A,3 G,/F,/E,F,G,A, | B,B,,D,E, F,4 | B,,8 | %47
w: Tecum principium in die vir-|tu- * * tis|tu- * * * * * * *|||ae|
 E,2 A,2 G,3 G, | G,2 B,2 A,4 | D,6 D,2 | A,,2 A,,A,, E,2 E,E, | B,,2 B,,B,, F,4- | %52
w: in splen- do- ri-|bus san- cto-|rum: ex|u- te- ro, an- te lu-|ci- fe- rum, ge-|
 F,2 D,2 E,2 F,2 | B,,2 B,4 G,2 | A,B,=CA,B,A,G,F, | E,3 D,/C,/ B,,2 A,,2 | B,,8 | !fermata!E,8 | %58
w: * nu- i _|te, ge- nu-|i _ _ _ _ _ _ _|_ _ _ _ _||te.|
 E,8 | B,4 G,4 | A,2 G,2 F,2 E,2 | D,8 | E,8 | F,8 | B,,8 | G,8 | D,4 A,4 | E,2 F,2 G,2 A,2 | %68
w: Juravit Dominus et non poeni-|te- bit|e- * * *||||um:|tu es sacerdos in aeternum secundum ordi-|nem Mel-|chi- * * *|
 B,4 A,2 G,2 | A,4 B,4 | E,8 | z8 | z8 | z8 | z8 | z8 | z8 | z8 | z8 | z8 | z8 | z8 | z8 | z8 | %84
w: |* se-|dech.||||||||||||||
 z8 | z8 | z8 | z8 | z8 | z8 | z8 | z8 | z8 | E,8 | D,3 =C, B,,2 C,2 | G,,A,,B,,C,D,E,F,G, | %96
w: |||||||||De torrente in|vi- * * a|bi- * * * * * * *|
 A,3 G,/F,/E,F,G,A, | B,B,,D,E, F,4 | B,,8 | G,8 | D,E,F,G, A,2 F,2 | G,6 A,2 | %102
w: ||bet:|propterea exal-|ta- * * * * bit|ca- *|
 B,A,G,F, E,3 D,/C,/ | B,,2 A,,2 B,,4 | !fermata!E,8 | z8 | z8 | z8 | z8 | z8 | z8 | z8 | z8 | z8 | %114
w: ||put.||||||||||
 z8 | z8 | E,8- | E,4 E,4 | =C,3 C, C,2 D,2 | G,,3 G,, G,,2 G,2 | D,4 z2 A,2 | G,2 E,2 B,4 | %122
w: ||Si-|* cut|e- rat in prin-|ci- pi- o et|nunc, et|nunc et sem-|
 E,4 z2 E,2 | D,2 B,,2 E,F,G,E, | F,2 E,D, E,2 F,2 | B,,8 | B,2 A,2 D,3 D, | D,2 D4 B,2 | %128
w: per, et|nunc et sem- * * *||per,|et in sae- cu-|la sae- cu-|
 =C2 A,2 B,4 | E,2 E,4 B,,2 | D,4 A,,4 | B,,8 | E,,4 E,4- | E,2 E,2 =C,2 C,2 | A,,8 | E,8 |] %136
w: lo- rum, A-|men, sae- cu-|lo- rum,|A-|men, sae-|* cu- lo- rum,|A-|men.|
V:4
 x8 | z2 z2 z2 x2 |[K:D] z8 | z8 | z8 | E,8 | B,,6 C,2 | D,4 E,4 | A,,8 | B,,8 | E,8 | B,4 G,4 | %12
 A,8 | E,8 | B,,8- | B,,8 | E,8 | E,6 D,2 | G,4 G,4 | D,3 D, D,2 E,2 | B,,4 D,4 | G,,8 | D,8 | %23
 G,,8 | z8 | D,4 E,4 | F,4 B,,4 | E,6 A,,2 | B,,8 | E,8 | E,8 | B,8 | A,4 D,4- | D,2 E,2 F,4 | %34
 B,,8 | G,8 | D,4 A,4 | B,4 F,3 G, | A,2 E,2 B,4 | A,2 =C2 B,4 | E,8 | E,8 | D,3 C, B,,2 =C,2 | %43
 G,,4 D,4 | A,,4 E,4 | B,,4 F,,4 | B,,8 | E,2 A,2 G,3 G, | G,2 B,2 A,4 | D,6 D,2 | %50
 A,2 A,A, E,2 E,E, | B,2 B,B, F,4- | F,2 D,2 E,2 F,2 | B,,2 B,,4 E,2 | A,,4 B,,4 | %55
 E,3 D,/C,/ B,,2 A,,2 | B,,8 | E,8 | E,8 | B,4 G,4 | A,2 G,2 F,2 E,2 | D,8 | E,8 | F,8 | B,,8 | %65
 G,8 | D,4 A,4 | E,2 F,2 G,2 A,2 | B,4 A,2 G,2 | A,4 B,4 | E,8 | G,8 | F,4 E,4 | D,4 C,4 | B,,8 | %75
 F,8 | B,,8 | E,8 | A,2 B,2 E,4 | B,,2 B,2 A,3 F, | G,2 A,2 B,4 | E,8 | E,8 | B,8 | A,4 D,4- | %85
 D,2 E,2 F,4 | B,,8 | G,8 | D,4 A,4 | B,4 F,3 G, | A,2 E,2 B,4 | A,2 =C2 B,4 | E,8 | E,8 | %94
 D,3 =C, B,,2 C,2 | G,,A,,B,,C, D,4 | A,,4 E,4 | B,,4 F,,4 | B,,8 | G,8 | D,E,F,G, A,2 F,2 | %101
 G,6 A,2 | B,4 E,F,G,A, | B,2 =C2 B,4 | E,8 | E,8 | A,,8 | E,8 | D,6 D,2 | G,,8 | D,4 D,2 B,,2 | %111
 A,,8 | E,8 | B,,4 A,,4 | B,,8 | E,8 | E,8- | E,4 E,4 | =C,3 C, C,2 D,2 | G,,3 G,, G,,2 G,2 | %120
 D,4 A,4 | G,2 E,2 B,4 | E,4 E,4 | D,2 B,,2 E,4 | F,2 E,D, E,2 F,2 | B,,8 | B,2 A,2 D,3 D, | %127
 D,2 D4 B,2 | =C2 A,2 B,4 | E,2 E,4 B,,2 | D,4 A,,4 | B,,8 | E,,4 E,4- | E,2 E,2 =C,2 C,2 | A,,8 | %135
 E,8 |] %136

